build/img/sprites/watsapp.svg

<svg width="43" height="43" viewBox="0 0 43 43" fill="none" xmlns="http://www.w3.org/2000/svg">
<rect x="0.160156" width="42.3191" height="42.3191" rx="21.1596" fill="white"/>
<path fill-rule="evenodd" clip-rule="evenodd" d="M25.5878 14.4122C22.9097 13.8626 20.1324 13.8626 17.4543 14.4122L17.1657 14.4708C16.4122 14.6251 15.72 14.9683 15.1664 15.4623C14.6127 15.9562 14.2192 16.5816 14.0297 17.2688C13.3521 19.7249 13.3521 22.2974 14.0297 24.7536C14.2105 25.4089 14.5769 26.0086 15.0918 26.4918C15.6067 26.9749 16.2518 27.3244 16.9614 27.5046L17.3572 29.6741C17.3699 29.743 17.4024 29.8075 17.4514 29.861C17.5004 29.9144 17.5642 29.9548 17.6359 29.9779C17.7077 30.0011 17.785 30.0061 17.8596 29.9926C17.9343 29.979 18.0036 29.9473 18.0604 29.9008L20.3851 27.9915C22.1302 28.0882 23.8814 27.9601 25.5878 27.6109L25.8773 27.5522C26.6308 27.398 27.3229 27.0548 27.8766 26.5608C28.4303 26.0668 28.8237 25.4415 29.0132 24.7543C29.6909 22.2982 29.6909 19.7257 29.0132 17.2695C28.8237 16.5823 28.4301 15.9569 27.8762 15.4629C27.3224 14.9689 26.6301 14.6257 25.8764 14.4716L25.5878 14.4122ZM18.1727 17.2054C18.0145 17.1842 17.8531 17.2134 17.7156 17.2883H17.7037C17.3845 17.4602 17.0968 17.6767 16.8516 17.9315C16.6473 18.148 16.5366 18.3668 16.5077 18.5778C16.4907 18.7029 16.5026 18.8295 16.5426 18.9491L16.5579 18.9569C16.7878 19.5766 17.0874 20.173 17.4534 20.7341C17.9256 21.5221 18.5064 22.2511 19.1814 22.9029L19.2019 22.9294L19.2342 22.9513L19.2538 22.9724L19.2776 22.9912C19.9901 23.6128 20.7859 24.1485 21.6458 24.5855C22.6289 25.0771 23.2257 25.3092 23.584 25.4061V25.4108C23.6887 25.4405 23.7841 25.4538 23.8803 25.4538C24.1856 25.4337 24.4747 25.3197 24.7009 25.1303C24.9775 24.9052 25.2116 24.6402 25.3938 24.3456V24.3401C25.5649 24.0431 25.507 23.7633 25.2601 23.5734C24.7647 23.1752 24.2285 22.8218 23.6589 22.5184C23.2776 22.3284 22.8903 22.4433 22.7336 22.6356L22.3991 23.0232C22.2272 23.2155 21.9156 23.1889 21.9156 23.1889L21.9071 23.1936C19.5824 22.6489 18.9618 20.4879 18.9618 20.4879C18.9618 20.4879 18.9329 20.1941 19.1482 20.044L19.567 19.7345C19.7679 19.5845 19.9075 19.2296 19.6922 18.8795C19.3624 18.357 18.9784 17.8649 18.5456 17.4102C18.4509 17.3034 18.3183 17.2307 18.171 17.2047M22.1003 16.266C21.9874 16.266 21.8792 16.3072 21.7994 16.3805C21.7195 16.4538 21.6747 16.5532 21.6747 16.6568C21.6747 16.7604 21.7195 16.8598 21.7994 16.9331C21.8792 17.0064 21.9874 17.0476 22.1003 17.0476C23.1771 17.0476 24.0709 17.3704 24.7783 17.9893C25.1418 18.3277 25.4253 18.7287 25.6108 19.1679C25.7972 19.6079 25.8824 20.0776 25.8602 20.5481C25.8579 20.5994 25.8666 20.6506 25.8858 20.6989C25.905 20.7471 25.9344 20.7914 25.9723 20.8292C26.0487 20.9056 26.1551 20.9509 26.268 20.9553C26.3809 20.9596 26.491 20.9226 26.5742 20.8524C26.6573 20.7822 26.7067 20.6846 26.7115 20.5809C26.7369 20.0022 26.6323 19.4249 26.4042 18.885C26.175 18.3423 25.8261 17.8489 25.3793 17.436L25.3708 17.4282C24.4932 16.6584 23.3823 16.266 22.1003 16.266ZM22.0714 17.5509C21.9585 17.5509 21.8502 17.5921 21.7704 17.6653C21.6906 17.7386 21.6458 17.838 21.6458 17.9417C21.6458 18.0453 21.6906 18.1447 21.7704 18.218C21.8502 18.2913 21.9585 18.3324 22.0714 18.3324H22.0859C22.8622 18.3832 23.4274 18.6208 23.8232 19.0108C24.2293 19.4125 24.4395 19.9119 24.4234 20.5293C24.4208 20.633 24.4631 20.7333 24.5411 20.8083C24.6191 20.8833 24.7263 20.9267 24.8392 20.9291C24.9521 20.9315 25.0614 20.8926 25.143 20.821C25.2247 20.7494 25.272 20.6509 25.2746 20.5473C25.295 19.7369 25.0107 19.0374 24.4472 18.4794V18.4778C23.8709 17.9104 23.0801 17.6103 22.1284 17.5517L22.1139 17.5501L22.0714 17.5509ZM22.0552 18.86C21.9983 18.8554 21.9409 18.8613 21.8865 18.8775C21.8321 18.8937 21.7818 18.9198 21.7386 18.9543C21.6955 18.9887 21.6603 19.0308 21.6352 19.0779C21.6102 19.1251 21.5957 19.1765 21.5928 19.2289C21.5898 19.2813 21.5983 19.3338 21.6179 19.3831C21.6375 19.4324 21.6677 19.4776 21.7068 19.516C21.7458 19.5543 21.7928 19.5851 21.8451 19.6064C21.8974 19.6277 21.9538 19.6391 22.0109 19.6399C22.3668 19.6571 22.594 19.7556 22.7371 19.8877C22.8809 20.0206 22.9882 20.2339 23.0077 20.5676C23.0088 20.6201 23.0214 20.6718 23.0446 20.7197C23.0679 20.7676 23.1015 20.8107 23.1433 20.8464C23.1851 20.8821 23.2343 20.9098 23.288 20.9277C23.3417 20.9456 23.3988 20.9534 23.4559 20.9506C23.5129 20.9478 23.5688 20.9345 23.6201 20.9115C23.6714 20.8885 23.7172 20.8562 23.7546 20.8166C23.7921 20.777 23.8205 20.7309 23.8381 20.681C23.8558 20.6311 23.8623 20.5785 23.8573 20.5262C23.83 20.0573 23.67 19.6431 23.3423 19.3383C23.0129 19.0335 22.5642 18.885 22.0552 18.86Z" fill="#1B2A3B"/>
</svg>

<svg width="43" height="43" viewBox="0 0 43 43" fill="none" xmlns="http://www.w3.org/2000/svg"><rect x=".16" width="42.319" height="42.319" rx="21.16" fill="#fff"/><path fill-rule="evenodd" clip-rule="evenodd" d="M25.588 14.412a20.267 20.267 0 00-8.134 0l-.288.059a4.296 4.296 0 00-2 .991 3.77 3.77 0 00-1.136 1.807 14.034 14.034 0 000 7.485 3.76 3.76 0 001.062 1.738c.515.483 1.16.832 1.87 1.013l.395 2.17a.378.378 0 00.094.186.428.428 0 00.185.117.462.462 0 00.424-.077l2.325-1.91a20.353 20.353 0 005.203-.38l.29-.059a4.295 4.295 0 001.999-.991 3.77 3.77 0 001.136-1.807 14.032 14.032 0 000-7.485 3.77 3.77 0 00-1.137-1.806 4.295 4.295 0 00-2-.991l-.288-.06zm-7.415 2.793a.75.75 0 00-.457.083h-.012c-.32.172-.607.389-.852.643-.205.217-.315.436-.344.647a.82.82 0 00.035.371l.015.008c.23.62.53 1.216.895 1.777a10.573 10.573 0 001.728 2.169l.02.026.033.022.02.021.024.02a11.582 11.582 0 002.368 1.593c.983.492 1.58.724 1.938.821v.005c.105.03.2.043.296.043.306-.02.595-.134.82-.324.277-.225.512-.49.694-.784v-.006c.17-.297.113-.577-.134-.767a10.237 10.237 0 00-1.601-1.055c-.381-.19-.769-.075-.925.118l-.335.387c-.172.192-.483.166-.483.166l-.009.005c-2.325-.545-2.945-2.706-2.945-2.706s-.03-.294.186-.444l.419-.31c.2-.15.34-.504.125-.855a9.443 9.443 0 00-1.146-1.469.65.65 0 00-.375-.205m3.93-.939a.445.445 0 00-.302.115.375.375 0 00-.124.276c0 .103.044.203.124.276.08.073.188.115.301.115 1.077 0 1.97.322 2.678.941.364.339.647.74.833 1.179.186.44.271.91.25 1.38a.363.363 0 00.111.281.45.45 0 00.602.023.379.379 0 00.137-.271 3.91 3.91 0 00-.307-1.696 4.204 4.204 0 00-1.025-1.449l-.008-.008c-.878-.77-1.989-1.162-3.27-1.162zm-.03 1.285a.446.446 0 00-.3.114.375.375 0 00-.125.277c0 .103.045.203.124.276.08.073.189.114.301.114h.015c.776.051 1.341.289 1.737.679.406.402.616.9.6 1.518a.374.374 0 00.118.28.444.444 0 00.298.12.447.447 0 00.304-.108.377.377 0 00.132-.274 2.72 2.72 0 00-.828-2.068v-.001c-.576-.568-1.367-.868-2.319-.926l-.014-.002h-.043zm-.016 1.309a.462.462 0 00-.316.094.398.398 0 00-.104.124.366.366 0 00.072.438.457.457 0 00.304.124c.356.017.583.116.726.248.144.133.251.346.27.68a.366.366 0 00.038.152.393.393 0 00.098.126.434.434 0 00.313.105.457.457 0 00.299-.134.382.382 0 00.083-.136.36.36 0 00.02-.155c-.028-.469-.188-.883-.516-1.188-.33-.305-.778-.453-1.287-.478z" fill="#1B2A3B"/></svg>
